!!!OTL: Arirang
!!!ARE: Korea
!!!AMD: Pentatonic
**kern
*>[A,A,B]
*>norep[A,B]
*>A
=1-
*clefG2
*k[f#]
*M3/4
*MM84
{4b/
4b/
4b/
=2
(4.b/
8a/)
4g/}
=3
{2dd\
8ee\L
8dd\J
=4
(4.b/
8a/
4g/)}
=5
{(8a/L
8b/J)
8b/L
8b/J
4b/
=6
(8a/L
8b/J)
(8a/L
8g/J)
(8e/L
8d/J)}
=7
{4e/
4g/
4e/
=8
2.d/}
=9:|!
*>B
{4e/
4g/
(8e/L
8d/J)
=10
4e/
4g/
(8e/L
8d/J)}
=11
{2g/
(8b/L
8a/J)
=12
(4.g/
8a/
8g/L
8a/J)}
=13
{4a/
4b/
4b/
=14
(4.b/
8a'/)
4g/}
=15
{4dd\
4dd\
(8ee\L
8dd\J)
=16
(4.b/
8a/)
4g/}
=17
{8a/L
8b/J
4b/
4b/
=18
(8a'/L
8b/J)
(8a/L
8g/J)}
{(8e/L
8d/J)
=19
4e/
4.g/
8e/
=20
2.d/}
==
*-
